.local/share/icons/Gruvbox-Plus-Dark/actions/16/view-financial-account-savings.svg

<svg xmlns="http://www.w3.org/2000/svg" width="16" height="16" version="1.1">
 <defs>
  <style id="current-color-scheme" type="text/css">
   .ColorScheme-Text { color:#565656; } .ColorScheme-Highlight { color:#4285f4; } .ColorScheme-NeutralText { color:#ff9800; } .ColorScheme-PositiveText { color:#4caf50; } .ColorScheme-NegativeText { color:#f44336; }
  </style>
 </defs>
 <path style="fill:currentColor" class="ColorScheme-Text" d="M 7.5 2 A 2.5 2.5 0 0 0 5 4.5 A 2.5 2.5 0 0 0 5.0546875 5 L 9.9492188 5 A 2.5 2.5 0 0 0 10 4.5 A 2.5 2.5 0 0 0 7.5 2 z M 13 4 A 2 2 0 0 0 11 6 L 7 6 A 4 4 0 0 0 3.1308594 9 L 2.0957031 9 L 2.0917969 9 C 1.2611397 8.9907141 1.0421402 8.6412855 1.0058594 8.4140625 C 0.98767926 8.3002029 1.0163631 8.2049368 1.078125 8.1328125 C 1.1398869 8.0606882 1.239055 7.9940565 1.4589844 7.9921875 A 0.50005 0.50005 0 1 0 1.4511719 6.9921875 C 0.98941513 6.9961117 0.57754584 7.1797493 0.31835938 7.4824219 C 0.05917286 7.7850945 -0.043820365 8.1877329 0.017578125 8.5722656 C 0.1403751 9.3413311 0.92304425 9.9890988 2.0878906 10 A 0.50005 0.50005 0 0 0 2.0917969 10 L 3 10 A 4 4 0 0 0 6 13.869141 L 6 15 L 8 15 L 8 14 L 10 14 L 10 15 L 12 15 L 12 13.867188 A 4 4 0 0 0 14.458984 12 L 16 12 L 16 9 L 14.867188 9 A 4 4 0 0 0 13 6.5410156 L 13 4 z M 12.5 8 A 0.5 0.5 0 0 1 13 8.5 A 0.5 0.5 0 0 1 12.5 9 A 0.5 0.5 0 0 1 12 8.5 A 0.5 0.5 0 0 1 12.5 8 z"/>
</svg>

<svg width="16" height="16" version="1.1" xmlns="http://www.w3.org/2000/svg">
  <defs>
    <style id="current-color-scheme" type="text/css">.ColorScheme-Text { color:#ebdbb2; } .ColorScheme-Highlight { color:#458588; }</style>
  </defs>
  <path class="ColorScheme-Text" d="m7.5 2a2.5 2.5 0 0 0-2.5 2.5 2.5 2.5 0 0 0 0.05469 0.5h4.895a2.5 2.5 0 0 0 0.05078-0.5 2.5 2.5 0 0 0-2.5-2.5zm5.5 2a2 2 0 0 0-2 2h-4a4 4 0 0 0-3.869 3h-1.039c-0.8307-0.009286-1.05-0.3587-1.086-0.5859-0.01818-0.1139 0.0105-0.2091 0.07227-0.2812s0.1609-0.1388 0.3809-0.1406a0.5 0.5 0 1 0-0.007812-1c-0.4618 0.003924-0.8736 0.1876-1.133 0.4902-0.2592 0.3027-0.3622 0.7053-0.3008 1.09 0.1228 0.7691 0.9055 1.417 2.07 1.428a0.5 0.5 0 0 0 0.003906 0h0.9082a4 4 0 0 0 3 3.869v1.131h2v-1h2v1h2v-1.133a4 4 0 0 0 2.459-1.867h1.541v-3h-1.133a4 4 0 0 0-1.867-2.459v-2.541zm-0.5 4a0.5 0.5 0 0 1 0.5 0.5 0.5 0.5 0 0 1-0.5 0.5 0.5 0.5 0 0 1-0.5-0.5 0.5 0.5 0 0 1 0.5-0.5z" fill="currentColor"/>
</svg>
